X: 1826
T: Ardgroom, The
R: polka
M: 2/4
K: Amajor
c/B/|:AE c>B|Ac e2|ef eA|cB Bc/B/|
AE c/e/c/B/|Ac e>^d|ef ec|BA Ac/2B/2:|
|:Aa ag|fe e>c|ef ec|AB c/2e/2c/2B/2|
Aa ag|fe e>c|ef ec|BA Ac/2B/2:|

